X: 3105
T: GOUROCK BAY
Q:"Strathspey."
R: Strathspey.
%R:strathspey
B: James Kerr "Merry Melodies" v.3 p.13 #105
Z: 2016 John Chambers <jc:trillian.mit.edu>
M: C
L: 1/16
K: A
|:\
vc4 B3A (EA3) A4 | c3cB3A (cde2) (fga2) |\
c4 B3A (EA3) A4 | F3B B3c dcBA GB3 :|
|:\
vAuA3 vc3uA ve3vA ua4 | AA3 c3A fedc ea3 |\
AA3 c3A e3A a4 | F3B B3c dcBA GB3 :|

%%sep 1 1 500
%%sep 1 1 500

